dist/img/svg/bg/scheme-work/certificate-completion/certificate-completion.svg

<svg width="402" height="99" viewBox="0 0 402 99" fill="none" xmlns="http://www.w3.org/2000/svg">
<g opacity="0.5" clip-path="url(#clip0_86_1980)">
<path d="M232.116 49.8573C232.116 49.8573 223.242 46.9511 217.579 43.5883C211.916 40.2255 208.091 38.9219 206.105 39.2125C204.118 39.5031 199.675 39.5031 196.46 40.0885C193.245 40.6739 191.259 41.2551 190.644 42.7123C190.03 44.1695 192.635 48.2548 195.85 49.1307C199.065 50.0067 205.491 54.0878 205.491 54.0878C205.491 54.0878 177.484 79.6121 178.556 82.2359C179.627 84.8598 191.873 95.5212 193.554 95.654C195.236 95.7869 220.489 88.3637 222.018 88.069C225.439 87.3493 228.701 86.0666 231.659 84.2785C233.649 83.0605 235.497 81.6422 237.169 80.048L249.881 74.8003L235.505 48.4001L232.116 49.8573Z" fill="white" stroke="#495E4C" stroke-linecap="round" stroke-linejoin="round"/>
<path d="M219.23 74.3933C219.23 74.3933 225.691 79.8859 226.388 82.215C226.786 83.7529 226.726 85.3662 226.213 86.8731L222.001 88.0688L219.23 74.3933Z" fill="#495E4C" stroke="#495E4C" stroke-linecap="round" stroke-linejoin="round"/>
<path d="M239.308 57.4214L245.246 76.3902L249.868 74.8001L239.308 57.4214Z" fill="#495E4C" stroke="#495E4C" stroke-linecap="round" stroke-linejoin="round"/>
<path d="M195.863 49.1305C195.863 49.1305 207.19 51.0278 209.329 51.8997C211.467 52.7715 223.103 64.5913 227.233 68.2364C231.363 71.8815 233.51 77.5693 233.663 81.2144C233.815 84.8596 232.273 89.6755 230.278 90.402C228.283 91.1285 226.91 90.1114 226.301 88.6542C225.691 87.1969 225.381 84.4236 225.381 84.4236L222.933 79.6119C223.098 81.5124 222.994 83.4255 222.624 85.2996C222.014 88.0688 220.942 93.9018 218.494 95.3632C216.046 96.8246 213.136 95.9444 212.831 95.2179C212.584 94.5494 212.381 93.8673 212.221 93.1753C212.221 93.1753 211.454 95.7991 209.172 96.5298C206.889 97.2605 203.661 96.3845 203.661 96.3845C203.661 96.3845 201.047 99.2906 198.917 98.7177C196.787 98.1448 194.635 95.9444 194.635 95.9444C194.635 95.9444 187.443 91.7181 180.86 87.3422C174.278 82.9664 162.499 69.2577 162.499 69.2577L156.835 65.9032L174.13 42.8574L181.488 47.2332L195.863 49.1305Z" fill="white" stroke="#495E4C" stroke-linecap="round" stroke-linejoin="round"/>
<path d="M176.282 49.2676L164.389 71.072L162.49 69.2577L176.282 49.2676Z" fill="#495E4C" stroke="#495E4C" stroke-linecap="round" stroke-linejoin="round"/>
<path d="M199.218 39.9431C199.218 39.9431 192.784 39.7812 191.259 40.379C188.645 41.4003 188.506 44.7548 188.506 45.3361C188.506 45.9173 186.667 50.5879 186.362 52.3399C186.058 54.0919 188.196 54.9637 193.097 53.3612C197.998 51.7586 199.37 49.7119 199.37 45.3361" fill="white"/>
<path d="M199.218 39.9431C199.218 39.9431 192.784 39.7812 191.259 40.379C188.645 41.4003 188.506 44.7548 188.506 45.3361C188.506 45.9173 186.667 50.5879 186.362 52.3399C186.058 54.0919 188.196 54.9637 193.097 53.3612C197.998 51.7586 199.37 49.7119 199.37 45.3361" stroke="#495E4C" stroke-linecap="round" stroke-linejoin="round"/>
<path d="M186.82 51.3185C187.069 51.0568 187.378 50.8545 187.724 50.7276C188.07 50.6007 188.442 50.5528 188.811 50.5878C190.035 50.7331 192.483 50.4425 192.635 48.6905C192.788 46.9385 192.178 46.0667 190.954 46.0667C190.133 46.1048 189.339 46.3576 188.658 46.7973L186.82 51.3185Z" stroke="#495E4C" stroke-linecap="round" stroke-linejoin="round"/>
<path d="M214.826 67.9707C215.545 69.1539 216.251 70.9848 217.579 72.4628C222.441 77.8599 222.938 79.6119 222.938 79.6119" stroke="#495E4C" stroke-linecap="round" stroke-linejoin="round"/>
<path d="M213.45 63.2751L213.755 66.1813L214.308 67.103" stroke="#495E4C" stroke-linecap="round" stroke-linejoin="round"/>
<path d="M205.186 71.1506L205.338 74.6505C205.338 74.6505 211.611 86.3207 212.531 87.6326C213.45 88.9446 212.836 92.4444 212.226 93.1751" stroke="#495E4C" stroke-linecap="round" stroke-linejoin="round"/>
<path d="M198.359 85.1958C199.124 86.4475 199.973 87.6512 200.899 88.7994C203.347 91.7056 203.652 96.3845 203.652 96.3845" stroke="#495E4C" stroke-linecap="round" stroke-linejoin="round"/>
<path d="M195.388 78.1545V80.0477C195.388 80.0477 196.299 81.7872 197.54 83.863" stroke="#495E4C" stroke-linecap="round" stroke-linejoin="round"/>
<path d="M170.667 79.865C170.667 79.865 166.977 78.8811 165.94 77.6356C164.904 76.3901 164.464 72.3589 164.394 71.0926C164.324 69.8264 163.523 68.5601 165.13 67.9955C166.738 67.4309 168.894 69.1206 169.709 70.8103C170.523 72.5 170.58 74.8208 170.58 75.1695C170.58 75.5183 171.834 77.4239 171.834 77.4239C171.834 77.4239 173.028 79.5827 170.667 79.865Z" fill="white" stroke="#495E4C" stroke-linecap="round" stroke-linejoin="round"/>
<path d="M164.816 73.75C164.816 73.75 166.123 74.9955 167.082 74.9332C168.04 74.8709 167.373 71.8029 167.373 71.8029C166.699 71.6413 166.074 71.3313 165.548 70.8978C165.112 70.5248 164.698 70.1299 164.307 69.7146L164.816 73.75Z" fill="white" stroke="#495E4C" stroke-linecap="round" stroke-linejoin="round"/>
<path d="M177.532 86.7694C177.532 86.7694 173.612 87.5457 172.658 86.2795C171.704 85.0132 169.778 79.9482 169.852 78.1879C169.926 76.4276 174.801 72.139 177.258 70.3787C179.715 68.6184 181.244 68.0579 182.721 68.9007C184.197 69.7435 185.378 70.8022 184.934 72.2801C184.489 73.7581 180.948 80.0894 180.36 81.2145C179.771 82.3396 179.175 86.2795 179.175 86.2795L177.532 86.7694Z" fill="white" stroke="#495E4C" stroke-linecap="round" stroke-linejoin="round"/>
<path d="M176.056 71.5618C176.056 71.5618 174.431 73.0398 175.241 74.1649C176.051 75.29 178.12 76.3487 179.009 76.0664C179.898 75.7841 182.773 72.8987 183.287 71.9853C183.801 71.0719 180.63 68.8882 180.63 68.8882C178.897 69.4062 177.326 70.3247 176.056 71.5618Z" fill="white" stroke="#495E4C" stroke-linecap="round" stroke-linejoin="round"/>
<path d="M183.927 92.1663C183.927 92.1663 179.654 92.9966 178.604 91.6265C177.554 90.2565 175.459 84.7099 175.555 82.7877C175.65 80.8655 180.956 76.1824 183.618 74.2602C186.28 72.338 187.974 71.7236 189.586 72.6453C191.198 73.5669 192.487 74.7211 192.004 76.3361C191.52 77.951 187.648 84.8635 187.003 86.0924C186.358 87.3213 185.696 91.6265 185.696 91.6265L183.927 92.1663Z" fill="white" stroke="#495E4C" stroke-linecap="round" stroke-linejoin="round"/>
<path d="M182.315 75.5597C182.315 75.5597 180.538 77.1747 181.444 78.4036C182.35 79.6325 184.589 80.7866 185.556 80.4794C186.523 80.1722 189.669 77.0211 190.235 76.0247C190.801 75.0283 187.329 72.6411 187.329 72.6411C185.431 73.2042 183.708 74.2069 182.315 75.5597Z" fill="white" stroke="#495E4C" stroke-linecap="round" stroke-linejoin="round"/>
<path d="M192.239 94.6202C192.239 94.6202 191.111 91.4026 191.111 91.1079C191.111 90.8131 193.158 86.1259 192.953 84.0792C192.748 82.0324 191.006 79.6867 189.904 80.2721C188.802 80.8575 186.728 82.5181 184.885 85.1544C183.043 87.7907 182.428 89.8375 183.043 90.8131C183.657 91.7888 187.342 95.5003 188.88 96.0857C190.418 96.6711 193.576 95.6705 193.576 95.6705L192.239 94.6202Z" fill="white" stroke="#495E4C" stroke-linecap="round" stroke-linejoin="round"/>
<path d="M185.068 86.0346C185.068 86.0346 186.402 86.8151 187.321 86.8151C188.24 86.8151 190.597 84.7642 190.496 82.7133C190.396 80.6624 189.063 81.1523 189.063 81.1523C189.063 81.1523 185.478 83.6889 185.068 86.0346Z" fill="white" stroke="#495E4C" stroke-linecap="round" stroke-linejoin="round"/>
<path d="M234.273 47.4572L250.069 80.0475L259.548 76.1492L243.007 43.7415L234.273 47.4572Z" fill="white" stroke="#495E4C" stroke-linecap="round" stroke-linejoin="round"/>
<path d="M310.812 4.61621L239.849 44.2727L263.307 89.9656L401.134 30.5248" stroke="#495E4C" stroke-linecap="round" stroke-linejoin="round"/>
<path d="M304.892 11.4231L240 44.0227L263.916 88.5289L389 33.2122L304.892 11.4231Z" fill="#9BF9A6"/>
<path d="M179.079 44.9788L157.524 76.8592L149.347 72.965L172.017 40.906L179.079 44.9788Z" fill="white" stroke="#495E4C" stroke-linecap="round" stroke-linejoin="round"/>
<path d="M107.649 0.207275L175.363 41.0843L142.721 88.7576L0.433105 23.5123" stroke="#495E4C" stroke-linecap="round" stroke-linejoin="round"/>
<path d="M142.288 88.7577L174.93 41.0844L108 3.33179L12.5 26.6539L142.288 88.7577Z" fill="#9BF9A6"/>
</g>
<defs>
<clipPath id="clip0_86_1980">
<rect width="402" height="99" fill="white"/>
</clipPath>
</defs>
</svg>

<svg width="402" height="99" fill="none" xmlns="http://www.w3.org/2000/svg"><g opacity=".5" clip-path="url(#clip0_86_1980)"><path d="M232.116 49.857s-8.874-2.906-14.537-6.269-9.488-4.666-11.474-4.376c-1.987.291-6.43.291-9.645.877-3.215.585-5.201 1.166-5.816 2.623-.614 1.457 1.991 5.543 5.206 6.419 3.215.876 9.641 4.957 9.641 4.957s-28.007 25.524-26.935 28.148c1.071 2.624 13.317 13.285 14.998 13.418 1.682.133 26.935-7.29 28.464-7.585a30.957 30.957 0 009.641-3.79 32.783 32.783 0 005.51-4.231l12.712-5.248-14.376-26.4-3.389 1.457z" fill="#fff" stroke="#495E4C" stroke-linecap="round" stroke-linejoin="round"/><path d="M219.23 74.393s6.461 5.493 7.158 7.822a8.117 8.117 0 01-.175 4.658l-4.212 1.196-2.771-13.676zm20.078-16.972l5.938 18.97 4.622-1.59-10.56-17.38z" fill="#495E4C" stroke="#495E4C" stroke-linecap="round" stroke-linejoin="round"/><path d="M195.863 49.13s11.327 1.898 13.466 2.77c2.138.872 13.774 12.691 17.904 16.336 4.13 3.645 6.277 9.333 6.43 12.978.152 3.646-1.39 8.462-3.385 9.188-1.995.727-3.368-.29-3.977-1.748-.61-1.457-.92-4.23-.92-4.23l-2.448-4.812c.165 1.9.061 3.814-.309 5.688-.61 2.769-1.682 8.602-4.13 10.063-2.448 1.462-5.358.581-5.663-.145a16.81 16.81 0 01-.61-2.043s-.767 2.624-3.049 3.355c-2.283.73-5.511-.145-5.511-.145s-2.614 2.906-4.744 2.333-4.282-2.774-4.282-2.774-7.192-4.226-13.775-8.602c-6.582-4.376-18.361-18.084-18.361-18.084l-5.664-3.355 17.295-23.046 7.358 4.376 14.375 1.898z" fill="#fff" stroke="#495E4C" stroke-linecap="round" stroke-linejoin="round"/><path d="M176.282 49.268l-11.893 21.804-1.899-1.814 13.792-19.99z" fill="#495E4C" stroke="#495E4C" stroke-linecap="round" stroke-linejoin="round"/><path d="M199.218 39.943s-6.434-.162-7.959.436c-2.614 1.021-2.753 4.376-2.753 4.957 0 .581-1.839 5.252-2.144 7.004-.304 1.752 1.834 2.624 6.735 1.021 4.901-1.602 6.273-3.65 6.273-8.025" fill="#fff"/><path d="M199.218 39.943s-6.434-.162-7.959.436c-2.614 1.021-2.753 4.376-2.753 4.957 0 .581-1.839 5.252-2.144 7.004-.304 1.752 1.834 2.624 6.735 1.021 4.901-1.602 6.273-3.65 6.273-8.025" stroke="#495E4C" stroke-linecap="round" stroke-linejoin="round"/><path d="M186.82 51.319a2.36 2.36 0 01.904-.591 2.48 2.48 0 011.087-.14c1.224.145 3.672-.145 3.824-1.898.153-1.752-.457-2.623-1.681-2.623a4.631 4.631 0 00-2.296.73l-1.838 4.522zm28.006 16.651c.719 1.184 1.425 3.015 2.753 4.493 4.862 5.397 5.359 7.149 5.359 7.149m-9.488-16.337l.305 2.906.553.922m-9.122 4.047l.152 3.5s6.273 11.67 7.193 12.983c.919 1.312.305 4.811-.305 5.542m-13.867-7.979a33.918 33.918 0 002.54 3.603c2.448 2.907 2.753 7.585 2.753 7.585m-8.264-18.23v1.894s.911 1.74 2.152 3.815" stroke="#495E4C" stroke-linecap="round" stroke-linejoin="round"/><path d="M170.667 79.865s-3.69-.984-4.727-2.23c-1.036-1.245-1.476-5.276-1.546-6.542-.07-1.267-.871-2.533.736-3.097 1.608-.565 3.764 1.125 4.579 2.814.814 1.69.871 4.01.871 4.36 0 .348 1.254 2.254 1.254 2.254s1.194 2.159-1.167 2.441z" fill="#fff" stroke="#495E4C" stroke-linecap="round" stroke-linejoin="round"/><path d="M164.816 73.75s1.307 1.246 2.266 1.183c.958-.062.291-3.13.291-3.13a4.53 4.53 0 01-1.825-.905c-.436-.373-.85-.768-1.241-1.183l.509 4.035zm12.716 13.02s-3.92.776-4.874-.49c-.954-1.267-2.88-6.332-2.806-8.092.074-1.76 4.949-6.049 7.406-7.81 2.457-1.76 3.986-2.32 5.463-1.477 1.476.843 2.657 1.901 2.213 3.38-.445 1.477-3.986 7.808-4.574 8.933-.589 1.126-1.185 5.066-1.185 5.066l-1.643.49z" fill="#fff" stroke="#495E4C" stroke-linecap="round" stroke-linejoin="round"/><path d="M176.056 71.562s-1.625 1.478-.815 2.603c.81 1.125 2.879 2.184 3.768 1.901.889-.282 3.764-3.167 4.278-4.08.514-.914-2.657-3.098-2.657-3.098a11.11 11.11 0 00-4.574 2.674zm7.871 20.604s-4.273.83-5.323-.54c-1.05-1.37-3.145-6.916-3.049-8.838.095-1.922 5.401-6.606 8.063-8.528 2.662-1.922 4.356-2.536 5.968-1.615 1.612.922 2.901 2.076 2.418 3.691-.484 1.615-4.356 8.528-5.001 9.756-.645 1.23-1.307 5.534-1.307 5.534l-1.769.54z" fill="#fff" stroke="#495E4C" stroke-linecap="round" stroke-linejoin="round"/><path d="M182.315 75.56s-1.777 1.615-.871 2.844c.906 1.228 3.145 2.383 4.112 2.075.967-.307 4.113-3.458 4.679-4.454.566-.997-2.906-3.384-2.906-3.384a12.155 12.155 0 00-5.014 2.919zm9.924 19.06s-1.128-3.217-1.128-3.512c0-.295 2.047-4.982 1.842-7.029-.205-2.047-1.947-4.392-3.049-3.807-1.102.585-3.176 2.246-5.019 4.882-1.842 2.637-2.457 4.684-1.842 5.66.614.975 4.299 4.686 5.837 5.272 1.538.585 4.696-.415 4.696-.415l-1.337-1.05z" fill="#fff" stroke="#495E4C" stroke-linecap="round" stroke-linejoin="round"/><path d="M185.068 86.035s1.334.78 2.253.78 3.276-2.05 3.175-4.102c-.1-2.05-1.433-1.56-1.433-1.56s-3.585 2.536-3.995 4.882zm49.205-38.578l15.796 32.59 9.479-3.898-16.541-32.407-8.734 3.715z" fill="#fff" stroke="#495E4C" stroke-linecap="round" stroke-linejoin="round"/><path d="M310.812 4.616l-70.963 39.657 23.458 45.693 137.827-59.441" stroke="#495E4C" stroke-linecap="round" stroke-linejoin="round"/><path d="M304.892 11.423L240 44.023l23.916 44.506L389 33.212l-84.108-21.789z" fill="#9BF9A6"/><path d="M179.079 44.979l-21.555 31.88-8.177-3.894 22.67-32.059 7.062 4.073z" fill="#fff" stroke="#495E4C" stroke-linecap="round" stroke-linejoin="round"/><path d="M107.649.207l67.714 40.877-32.642 47.674L.433 23.512" stroke="#495E4C" stroke-linecap="round" stroke-linejoin="round"/><path d="M142.288 88.758l32.642-47.674L108 3.332 12.5 26.654l129.788 62.104z" fill="#9BF9A6"/></g><defs><clipPath id="clip0_86_1980"><path fill="#fff" d="M0 0h402v99H0z"/></clipPath></defs></svg>
